X: 1641
U: Q=!diminuendo(!
U: q=!diminuendo)!
U: P=!crescendo(!
U: p=!crescendo)!
M: 2/4
L: 1/16
K: G
V: 1
|: "VIOLIN"\
!ff![B4G4][B4G4] | [B4G4][B4G4] | {[cA]}[B2G2][A2F2][B2G2][c2A2] | [d2B2] [g2B2D2] [b4B4D4] |\
[B4G4][B4G4] | [B4G4][d4B4] | P[A2F2][c2F2]p [f2d2](3efe | [d4F4] [d'4d4D4] |\
[B4G4][B4G4] | [B4G4][d4B4] |
{[cA]}[B2G2][A2F2][B2G2][c2A2] | [d2B2] [g2B2D2] "_>"[b4B4D4] |\
"_>"[B4G4]"_>"[B4G4] | "_>"[B4G4]"^>"[d4B4] | P[A2F2][d2F2]p [f2d2](3efe | [d4F4] [d'4f4D4] :|\
|: !p!\
z2 !/![B6D6] | z2 !/![B6D6] | z2 !/![A6F6] | z2 !/![B6G6] |
z2 !/![B6G6] | z2 !/![B6G6] | [^A2F2][A2F2][A2F2][A2F2] | [B2F2][B2F2][B2F2]z2 |\
z2!/![B6D6] |  z2!/![B6D6] | z2[A2F2] [A4F4] | z2!/![B6D6] |\
z2!/![B6D6] | z2[B2D2] [B4D4] | z2[A2F2] "_>"[A4F4] | [B2G2][g4B4D4]z2 "_FINE"H|]
[B2G2][B2G2] [B4G4] | [B2G2][B2G2] [B4G4] | [A2E2]c2 [A2E2] a2 | [g2e2]z2 e'4 |\
[B2G2][B2G2] [B4G4] | [B2G2]z2 [B2G2]z2 | !/![^A8F8] | [B2F2B,2]z2 "^>"[a4B4] |\
[B2G2][B2G2] [B4G4] | [B2G2][B2G2] [B4G4] | A2c2e2a2 | [g2e2]z2 [e4B4E4] |
[B2G2][B2G2] [B4G4] | [B2G2][B2G2] [B4G4] | P!/![^A8F8]p | [B2F2]z2 " ^>"[f4B4] |\
z2 [A2^D2][A2D2][A2D2] | [B4E4] [B2G2][B2G2] | z2!/![B6^G6] | z2!/![c6E6] |\
c'2f2 (f2ga) | c'3b (agfe) |
^d3c (BAGF) | [E2B,2]z2 "^>"[E4B,4] |\
z2[A2F2][A2F2][A2F2] | z2[B2G2] [B4G4] | z2[B2^G2][B2G2][B2G2] | z2[c2E2][c2E2][c2E2] |\
z2[A2F2][A2F2][A2F2] | [B2G2][B2G2] [B4G4] | z2[^F2^D2][F2D2][F2D2] | [E2G,2]z2 z4 "_D.C."|]
V: 2
|: "CLAR."\
!ff!B,GDG B,GDG | B,GDG B,GDG | B,GDG B,GDG | B2g2 d4 |
!ff!B,GDG B,GDG | B,GDG B,GDG | B,GDG B,GDG | B2d2 "^>"g4 |
|:!p!\
(B4 Bdf)c' | b4- bgde | "^>"d4 (dc)Ae | d4- dBGA |
(B4 Bd)gc' | "^>"b4 (bg).d.e | "^>"f4- fe^cd | B2d2B2z2 |
"^>"B4 Bdgc' | b4- bgde | "^>"d4- dcAe | "^>"d4- dB.G.A |
(g2f2)(f2e2) | (e2^d2)(d2e2) | c2e2a2c'2 | b2z2"^>"g4 |
(g2f2)(f2e2) | (e2^d2)(d2e2) | ^c2^d2e2f2 | B2z2"^>"^d4 |
(g2f2)(f2e2) | (e2^d2)(d2e2) | c2e2a2c'2 | b2z2"^>"g4 |
(g2f2)(f2e2) | {f}(e2^d2)(d2e2) | ^c2P^d2pe2f2 | ^d2z2 "^>"d4 |
{c}c2B2e2f2 | g2f2e4 | =f2e2a2b2 | c'2b2a4 |
a2^d2 d2A2 | E2G2G2G2 | B2F2 F2z2 | G2z2 "_>"G4 |
{d}c2B2e2f2 | {a}g2f2 e4 | {g}=f2e2a2b2 | c'2b2 a4 |
c'2f2 (f2ga) | c'3b agfe | ^d3c BAGF | E2z2 z4 "_D.C."|]
V: 3 clef=bass middle=d
|: "BASE"\
!ff![g4G4] [g4G4] | [g4G4] [g4G4] | G2 !/!g6 | G2 g2 g4 |
[g4G4] [g4G4] | g4 ^g4 | PA2 a2pA2"_>"^c2 | d4 [d'4d4] |
[g4G4] [g4G4] | [g4G4] [g4G4] | G2 g2g2g2 | G2 g2 "^>"g4 |
[g4G4] [g4G4] | [g4G4] ^g4 | a2 A2 A2^c2 | d4 [d'4d4] :|
|:!p!\
e2e2 e4 | e2e2 e4 | E2 e2e2e2 | e2z2 "^>"e4 |
e2e2 e4 | e2z2 e2z2 | !/!f8 | f2z2 "^>"B4 |
e2e2 e4 | e2e2 e4 | !/!e8 | e2z2 "^>"e4 |
e2e2 e4 | e2e2 e4 | P!/!f8p | B2z2 "^>"B4 |
d2 b2b2b2 | e2e2 E4 | !/!e8 | A2 a2 a4 |
a2 A2A2^d2 | B2 b2b2b2 | B2 b2b2z2 | e2z2 "_>"E4 |

